public/images/learn/repetition.svg

<?xml version="1.0" encoding="UTF-8" standalone="no"?>
<svg
   xmlns:dc="http://purl.org/dc/elements/1.1/"
   xmlns:cc="http://creativecommons.org/ns#"
   xmlns:rdf="http://www.w3.org/1999/02/22-rdf-syntax-ns#"
   xmlns:svg="http://www.w3.org/2000/svg"
   xmlns="http://www.w3.org/2000/svg"
   xmlns:sodipodi="http://sodipodi.sourceforge.net/DTD/sodipodi-0.dtd"
   xmlns:inkscape="http://www.inkscape.org/namespaces/inkscape"
   viewBox="0 0 512 512"
   version="1.1"
   id="svg845"
   sodipodi:docname="repetition.svg"
   inkscape:version="1.0.1 (3bc2e813f5, 2020-09-07)">
  <metadata
     id="metadata851">
    <rdf:RDF>
      <cc:Work
         rdf:about="">
        <dc:format>image/svg+xml</dc:format>
        <dc:type
           rdf:resource="http://purl.org/dc/dcmitype/StillImage" />
        <dc:title></dc:title>
      </cc:Work>
    </rdf:RDF>
  </metadata>
  <defs
     id="defs849" />
  <sodipodi:namedview
     pagecolor="#ffffff"
     bordercolor="#666666"
     borderopacity="1"
     objecttolerance="10"
     gridtolerance="10"
     guidetolerance="10"
     inkscape:pageopacity="0"
     inkscape:pageshadow="2"
     inkscape:window-width="3840"
     inkscape:window-height="2050"
     id="namedview847"
     showgrid="false"
     inkscape:zoom="1.7050781"
     inkscape:cx="13.743814"
     inkscape:cy="314.52493"
     inkscape:window-x="-12"
     inkscape:window-y="-12"
     inkscape:window-maximized="1"
     inkscape:current-layer="svg845"
     inkscape:document-rotation="0" />
  <path
     style="fill:#ffffff;fill-opacity:1;fill-rule:nonzero;stroke:none;stroke-width:2.63046;stroke-opacity:0.487437"
     d="M 121.42106,191.54196 77.132964,207.01968 64.999396,322.42615 H 177.84272 L 165.70916,207.01968 Z"
     id="path3112"
     sodipodi:nodetypes="cccccc" />
  <path
     id="rect845"
     style="fill:#ffffff;stroke:none;stroke-width:0.315806;stroke-linecap:square;stroke-linejoin:bevel;paint-order:stroke fill markers"
     d="M 29.818359,123.65625 V 391.86328 H 215.33203 V 123.65625 Z m 9.466261,9.79938 166.99586,1.45147 -1.24412,247.5715 -165.959093,0.62206 z"
     sodipodi:nodetypes="cccccccccc" />
  <path
     style="fill:#ffffff;stroke:none;stroke-width:1px;stroke-linecap:butt;stroke-linejoin:miter;stroke-opacity:1"
     d="m 227.03545,209.46017 c 56.79877,-20.34978 115.03478,-32.54591 174.17668,-1.24412 l 1.65883,-28.61474 23.62963,45.95769 -30.88089,23.93508 2.68949,-22.20153 C 341.80568,199.01449 284.84574,201.56991 227.03545,209.46017 Z"
     id="path855"
     sodipodi:nodetypes="ccccccc" />
  <path
     style="fill:#ffffff;stroke:none;stroke-width:1px;stroke-linecap:butt;stroke-linejoin:miter;stroke-opacity:1"
     d="M 370.39532,245.89007 C 313.59655,225.54029 255.36054,213.34416 196.21864,244.64595 l -1.65883,-28.61474 -23.62963,45.95769 30.88089,23.93508 -2.68949,-22.20153 c 56.50351,-28.27806 113.46345,-25.72264 171.27374,-17.83238 z"
     id="path857"
     sodipodi:nodetypes="ccccccc" />
  <path
     style="fill:#ffffff;stroke:none;stroke-width:1px;stroke-linecap:butt;stroke-linejoin:miter;stroke-opacity:1"
     d="m 227.52583,280.78584 c 56.79877,-20.34978 115.03478,-32.54591 174.17668,-1.24412 l 1.65883,-28.61474 23.62963,45.95769 -30.88089,23.93508 2.68949,-22.20153 C 342.29606,270.34016 285.33612,272.89558 227.52583,280.78584 Z"
     id="path859"
     sodipodi:nodetypes="ccccccc" />
  <path
     id="path882"
     style="fill:#ffffff;stroke:none;stroke-width:0.315806;stroke-linecap:square;stroke-linejoin:bevel;paint-order:stroke fill markers"
     d="M 298.06224,123.65625 V 391.86328 H 483.57591 V 123.65625 Z m 9.46626,9.79938 166.99586,1.45147 -1.24412,247.5715 -165.95909,0.62206 z"
     sodipodi:nodetypes="cccccccccc" />
</svg>

<svg xmlns="http://www.w3.org/2000/svg" viewBox="0 0 512 512"><path style="fill:#fff;fill-opacity:1;fill-rule:nonzero;stroke:none;stroke-width:2.63046;stroke-opacity:.487437" d="M121.421 191.542 77.133 207.02 64.999 322.426h112.844L165.709 207.02Z"/><path style="fill:#fff;stroke:none;stroke-width:.315806;stroke-linecap:square;stroke-linejoin:bevel;paint-order:stroke fill markers" d="M29.818 123.656v268.207h185.514V123.656Zm9.467 9.8 166.995 1.451-1.244 247.572-165.959.622z"/><path style="fill:#fff;stroke:none;stroke-width:1px;stroke-linecap:butt;stroke-linejoin:miter;stroke-opacity:1" d="M227.035 209.46c56.8-20.35 115.035-32.546 174.177-1.244l1.659-28.615 23.63 45.958-30.881 23.935 2.69-22.201c-56.504-28.279-113.464-25.723-171.275-17.833Z"/><path style="fill:#fff;stroke:none;stroke-width:1px;stroke-linecap:butt;stroke-linejoin:miter;stroke-opacity:1" d="M370.395 245.89c-56.798-20.35-115.034-32.546-174.176-1.244l-1.66-28.615-23.629 45.958 30.881 23.935-2.69-22.202C255.626 235.444 312.586 238 370.396 245.89z"/><path style="fill:#fff;stroke:none;stroke-width:1px;stroke-linecap:butt;stroke-linejoin:miter;stroke-opacity:1" d="M227.526 280.786c56.799-20.35 115.035-32.546 174.177-1.244l1.658-28.615 23.63 45.958-30.88 23.935 2.689-22.202c-56.504-28.278-113.464-25.722-171.274-17.832Z"/><path style="fill:#fff;stroke:none;stroke-width:.315806;stroke-linecap:square;stroke-linejoin:bevel;paint-order:stroke fill markers" d="M298.062 123.656v268.207h185.514V123.656Zm9.466 9.8 166.996 1.451-1.244 247.572-165.959.622z"/></svg>
